icon/pk/windows.svg

<svg viewBox="0 0 48 48" fill="none" xmlns="http://www.w3.org/2000/svg" height="1em" width="1em">
  <path d="M6.75 11.0625L19.6875 9.33752V21.4125H6.75V11.0625Z" fill="#2F88FF" stroke="black" stroke-width="3.83333" stroke-linejoin="round"/>
  <path d="M24.8623 8.84464L41.2498 6.75V21.4125H24.8623V8.84464Z" fill="#2F88FF" stroke="black" stroke-width="3.83333" stroke-linejoin="round"/>
  <path d="M24.8623 27.45L41.2498 27.8333V41.25L24.8623 38.5666V27.45Z" fill="#2F88FF" stroke="black" stroke-width="3.83333" stroke-linejoin="round"/>
  <path d="M6.75 26.5875L19.6875 26.899V37.8L6.75 35.6198V26.5875Z" fill="#2F88FF" stroke="black" stroke-width="3.83333" stroke-linejoin="round"/>
</svg>

<svg width="48" height="48" fill="none" xmlns="http://www.w3.org/2000/svg"><path d="m6.75 11.063 12.938-1.725v12.075H6.75v-10.35ZM24.862 8.845 41.25 6.75v14.663H24.862V8.845ZM24.862 27.45l16.388.383V41.25l-16.388-2.683V27.45ZM6.75 26.587l12.938.312V37.8L6.75 35.62v-9.032Z" fill="#2F88FF" stroke="#000" stroke-width="3.833" stroke-linejoin="round"/></svg>
